X: 05071
T: PHOENIX FIDDLE
C: Bob McQuillen 23 Aug 80
B: Bob's Note Book 5 #71
%R: jig
Z: 2021 John Chambers <jc:trillian.mit.edu>
M: 6/8
L: 1/8
K: Bm
F \
| Bcd c2f | dcB A2F | Bcd c2f | d2B cde |\
| fdB dcB | AFE EFA | Bcd c2A | B3 B2 :|
|: b \
| bfb aba | fdf ecA | Bcd efg | a2a fga |\
| bfb afd | fed cBA | Bcd ecA | B3 B2 :|
%%begintext align
%% For Ned Phoenix of Jamaica,
%% VT. - It's always so nice
%% when I get to play the music
%% with you, Ned -
%%endtext
